X:499
%%etbk:tnset id:214,pos:2,rep:3x,ant:
%%etbk:pldat 2015-01-18T11:27,2014-11-22T15:15,2014-11-19T16:59,2014-05-02T16:42,2014-05-01T19:00,2014-04-30T15:25,2014-04-28T18:36,2014-03-25T15:56,2014-03-18T17:35,2014-03-14T18:40,2013-11-21T18:57,2013-11-16T15:00,2013-11-12T18:32,2013-11-09T15:18,2013-11-07T16:02,2013-10-04T17:03,2013-09-30T18:51,2013-09-29T14:14,2013-09-27T14:16,2013-09-26T15:15
T:Mountain Top, The
H: Created 2013-09-26 /  Last Modified 2014-03-25
R:reel
M:4/4
K:Gmaj
|: "G"!3!B!1!G!2!A!1!G !2!E!3!G!1!D!2!E| !1!G2!2!B!3!d !4!e!3!d!5!g!3!d|!2!B!1!G!2!AG !2!E!3!G!1!D!3!G| "D"!5!B2!1!A!4!d "G"!2!B!1!GGA:|
"G"!2!B!4!ddd !5!ed!2!B!1!A| !2!B!4!d!2!ef !4!gfed| !2!B!3!dd!2!B !3!d!3!d!5!g!4!e| "D"!3!d!2!B!1!A!3!c "G"!2!B!1!GG!1!A|
"G"!2!B!4!ddd !5!ed!2!B!1!A| !2!B!4!d!2!ef  !4!g2!3!ga | !5!bg!4!af !4!gfed | "D"!2!egfa !4!ge!1!d!4!c||


